packages/icons/src/svg/ledger.svg

<svg width="40" height="40" viewBox="0 0 40 40" fill="none" xmlns="http://www.w3.org/2000/svg">
<path d="M16 2.99999H31.49C32.5651 2.99671 33.6169 3.31291 34.5119 3.90847C35.4069 4.50403 36.1048 5.35209 36.517 6.34499C36.791 7.00499 37 7.71099 37 8.42499V24H16V2.99999ZM8.425 2.99999H11V11H3V8.42499C3 6.9862 3.57156 5.60633 4.58895 4.58894C5.60633 3.57156 6.9862 2.99999 8.425 2.99999ZM3 16H11V24H3V16ZM31.575 37H29V29H37V31.49C37.0034 32.5651 36.6873 33.6169 36.0917 34.512C35.4961 35.407 34.648 36.1049 33.655 36.517C32.995 36.791 32.289 37 31.575 37ZM16 29H24V37H16V29ZM3 31.575V29H11V37H8.425C6.9862 37 5.60633 36.4284 4.58895 35.411C3.57156 34.3937 3 33.0138 3 31.575Z" fill="#142533"/>
</svg>

<svg width="40" height="40" fill="none" xmlns="http://www.w3.org/2000/svg"><path d="M16 3h15.49a5.425 5.425 0 0 1 5.027 3.345c.274.66.483 1.366.483 2.08V24H16V3zM8.425 3H11v8H3V8.425A5.425 5.425 0 0 1 8.425 3zM3 16h8v8H3v-8zM31.575 37H29v-8h8v2.49a5.424 5.424 0 0 1-3.345 5.027c-.66.274-1.366.483-2.08.483zM16 29h8v8h-8v-8zM3 31.575V29h8v8H8.425A5.425 5.425 0 0 1 3 31.575z" fill="#142533"/></svg>
